images/3233589.svg

<?xml version="1.0" encoding="UTF-8"?>
<svg xmlns="http://www.w3.org/2000/svg" xmlns:xlink="http://www.w3.org/1999/xlink" width="300pt" height="300pt" viewBox="0 0 300 300" version="1.1">
<defs>
<g>
<symbol overflow="visible" id="glyph0-0">
<path style="stroke:none;" d="M 0.453125 1.59375 L 0.453125 -6.34375 L 4.953125 -6.34375 L 4.953125 1.59375 Z M 0.953125 1.09375 L 4.453125 1.09375 L 4.453125 -5.84375 L 0.953125 -5.84375 Z M 0.953125 1.09375 "/>
</symbol>
<symbol overflow="visible" id="glyph0-1">
<path style="stroke:none;" d="M 3.546875 -5.953125 C 2.898438 -5.953125 2.382812 -5.710938 2 -5.234375 C 1.625 -4.753906 1.4375 -4.101562 1.4375 -3.28125 C 1.4375 -2.445312 1.625 -1.789062 2 -1.3125 C 2.382812 -0.832031 2.898438 -0.59375 3.546875 -0.59375 C 4.191406 -0.59375 4.703125 -0.832031 5.078125 -1.3125 C 5.453125 -1.789062 5.640625 -2.445312 5.640625 -3.28125 C 5.640625 -4.101562 5.453125 -4.753906 5.078125 -5.234375 C 4.703125 -5.710938 4.191406 -5.953125 3.546875 -5.953125 Z M 3.546875 -6.6875 C 4.460938 -6.6875 5.195312 -6.375 5.75 -5.75 C 6.300781 -5.132812 6.578125 -4.3125 6.578125 -3.28125 C 6.578125 -2.238281 6.300781 -1.410156 5.75 -0.796875 C 5.195312 -0.179688 4.460938 0.125 3.546875 0.125 C 2.617188 0.125 1.878906 -0.179688 1.328125 -0.796875 C 0.773438 -1.410156 0.5 -2.238281 0.5 -3.28125 C 0.5 -4.3125 0.773438 -5.132812 1.328125 -5.75 C 1.878906 -6.375 2.617188 -6.6875 3.546875 -6.6875 Z M 3.546875 -6.6875 "/>
</symbol>
<symbol overflow="visible" id="glyph0-2">
<path style="stroke:none;" d="M 0.890625 -6.5625 L 2.078125 -6.5625 L 4.984375 -1.078125 L 4.984375 -6.5625 L 5.84375 -6.5625 L 5.84375 0 L 4.65625 0 L 1.75 -5.484375 L 1.75 0 L 0.890625 0 Z M 0.890625 -6.5625 "/>
</symbol>
<symbol overflow="visible" id="glyph0-3">
<path style="stroke:none;" d="M 0.890625 -6.5625 L 1.765625 -6.5625 L 1.765625 -3.875 L 5 -3.875 L 5 -6.5625 L 5.890625 -6.5625 L 5.890625 0 L 5 0 L 5 -3.125 L 1.765625 -3.125 L 1.765625 0 L 0.890625 0 Z M 0.890625 -6.5625 "/>
</symbol>
</g>
</defs>
<g id="surface44373">
<rect x="0" y="0" width="300" height="300" style="fill:rgb(100%,100%,100%);fill-opacity:1;stroke:none;"/>
<path style="fill:none;stroke-width:1.2;stroke-linecap:butt;stroke-linejoin:miter;stroke:rgb(0%,0%,0%);stroke-opacity:1;stroke-miterlimit:10;" d="M 246.816406 63.039062 L 245.027344 86.851562 "/>
<path style="fill:none;stroke-width:1.2;stroke-linecap:butt;stroke-linejoin:miter;stroke:rgb(0%,0%,0%);stroke-opacity:1;stroke-miterlimit:10;" d="M 243.441406 89.171875 L 253.304688 95.898438 "/>
<path style="fill:none;stroke-width:1.2;stroke-linecap:butt;stroke-linejoin:miter;stroke:rgb(100%,0%,0%);stroke-opacity:1;stroke-miterlimit:10;" d="M 253.304688 95.898438 L 263.167969 102.625 "/>
<path style="fill:none;stroke-width:1.2;stroke-linecap:butt;stroke-linejoin:miter;stroke:rgb(0%,0%,0%);stroke-opacity:1;stroke-miterlimit:10;" d="M 246.609375 84.53125 L 256.472656 91.257812 "/>
<path style="fill:none;stroke-width:1.2;stroke-linecap:butt;stroke-linejoin:miter;stroke:rgb(100%,0%,0%);stroke-opacity:1;stroke-miterlimit:10;" d="M 256.472656 91.257812 L 266.332031 97.984375 "/>
<path style="fill:none;stroke-width:1.2;stroke-linecap:butt;stroke-linejoin:miter;stroke:rgb(0%,0%,0%);stroke-opacity:1;stroke-miterlimit:10;" d="M 245.027344 86.851562 L 234.269531 92.027344 "/>
<path style="fill:none;stroke-width:1.2;stroke-linecap:butt;stroke-linejoin:miter;stroke:rgb(0%,0%,100%);stroke-opacity:1;stroke-miterlimit:10;" d="M 234.269531 92.027344 L 223.511719 97.203125 "/>
<path style=" stroke:none;fill-rule:nonzero;fill:rgb(100%,100%,100%);fill-opacity:1;" d="M 260.75 94.804688 L 268.75 94.804688 L 268.75 105.804688 L 260.75 105.804688 Z M 260.75 94.804688 "/>
<g style="fill:rgb(100%,0%,0%);fill-opacity:1;">
  <use xlink:href="#glyph0-1" x="260.75" y="103.467773"/>
</g>
<path style="fill:none;stroke-width:1.2;stroke-linecap:butt;stroke-linejoin:miter;stroke:rgb(0%,0%,100%);stroke-opacity:1;stroke-miterlimit:10;" d="M 223.511719 97.203125 L 222.617188 109.109375 "/>
<path style="fill:none;stroke-width:1.2;stroke-linecap:butt;stroke-linejoin:miter;stroke:rgb(0%,0%,0%);stroke-opacity:1;stroke-miterlimit:10;" d="M 222.617188 109.109375 L 221.71875 121.011719 "/>
<path style=" stroke:none;fill-rule:nonzero;fill:rgb(100%,100%,100%);fill-opacity:1;" d="M 216.511719 91.703125 L 230.511719 91.703125 L 230.511719 102.703125 L 216.511719 102.703125 Z M 216.511719 91.703125 "/>
<g style="fill:rgb(0%,0%,100%);fill-opacity:1;">
  <use xlink:href="#glyph0-2" x="216.511719" y="100.366211"/>
  <use xlink:href="#glyph0-3" x="223.489258" y="100.366211"/>
</g>
<path style="fill:none;stroke-width:1.2;stroke-linecap:butt;stroke-linejoin:miter;stroke:rgb(0%,0%,0%);stroke-opacity:1;stroke-miterlimit:10;" d="M 221.71875 121.011719 L 200.207031 131.367188 "/>
<path style="fill:none;stroke-width:1.2;stroke-linecap:butt;stroke-linejoin:miter;stroke:rgb(0%,0%,0%);stroke-opacity:1;stroke-miterlimit:10;" d="M 200.207031 131.367188 L 199.3125 143.273438 "/>
<path style="fill:none;stroke-width:1.2;stroke-linecap:butt;stroke-linejoin:miter;stroke:rgb(0%,0%,100%);stroke-opacity:1;stroke-miterlimit:10;" d="M 199.3125 143.273438 L 198.414062 155.175781 "/>
<path style="fill:none;stroke-width:1.2;stroke-linecap:butt;stroke-linejoin:miter;stroke:rgb(0%,0%,100%);stroke-opacity:1;stroke-miterlimit:10;" d="M 198.414062 155.175781 L 187.65625 160.355469 "/>
<path style="fill:none;stroke-width:1.2;stroke-linecap:butt;stroke-linejoin:miter;stroke:rgb(0%,0%,0%);stroke-opacity:1;stroke-miterlimit:10;" d="M 187.65625 160.355469 L 176.902344 165.53125 "/>
<path style=" stroke:none;fill-rule:nonzero;fill:rgb(100%,100%,100%);fill-opacity:1;" d="M 191.414062 149.675781 L 205.414062 149.675781 L 205.414062 160.675781 L 191.414062 160.675781 Z M 191.414062 149.675781 "/>
<g style="fill:rgb(0%,0%,100%);fill-opacity:1;">
  <use xlink:href="#glyph0-2" x="191.414062" y="158.338867"/>
  <use xlink:href="#glyph0-3" x="198.391602" y="158.338867"/>
</g>
<path style="fill:none;stroke-width:1.2;stroke-linecap:butt;stroke-linejoin:miter;stroke:rgb(0%,0%,0%);stroke-opacity:1;stroke-miterlimit:10;" d="M 176.902344 165.53125 L 167.039062 158.804688 "/>
<path style="fill:none;stroke-width:1.2;stroke-linecap:butt;stroke-linejoin:miter;stroke:rgb(0%,0%,100%);stroke-opacity:1;stroke-miterlimit:10;" d="M 167.039062 158.804688 L 157.175781 152.074219 "/>
<path style="fill:none;stroke-width:1.2;stroke-linecap:butt;stroke-linejoin:miter;stroke:rgb(0%,0%,0%);stroke-opacity:1;stroke-miterlimit:10;" d="M 171.761719 168.828125 L 163.871094 163.445312 "/>
<path style="fill:none;stroke-width:1.2;stroke-linecap:butt;stroke-linejoin:miter;stroke:rgb(0%,0%,100%);stroke-opacity:1;stroke-miterlimit:10;" d="M 163.871094 163.445312 L 155.984375 158.0625 "/>
<path style="fill:none;stroke-width:1.2;stroke-linecap:butt;stroke-linejoin:miter;stroke:rgb(0%,0%,0%);stroke-opacity:1;stroke-miterlimit:10;" d="M 175.109375 189.339844 L 176.902344 165.53125 "/>
<path style="fill:none;stroke-width:1.2;stroke-linecap:butt;stroke-linejoin:miter;stroke:rgb(0%,0%,100%);stroke-opacity:1;stroke-miterlimit:10;" d="M 157.175781 152.074219 L 146.417969 157.253906 "/>
<path style="fill:none;stroke-width:1.2;stroke-linecap:butt;stroke-linejoin:miter;stroke:rgb(0%,0%,0%);stroke-opacity:1;stroke-miterlimit:10;" d="M 146.417969 157.253906 L 135.660156 162.429688 "/>
<path style=" stroke:none;fill-rule:nonzero;fill:rgb(100%,100%,100%);fill-opacity:1;" d="M 154.175781 146.574219 L 161.175781 146.574219 L 161.175781 157.574219 L 154.175781 157.574219 Z M 154.175781 146.574219 "/>
<g style="fill:rgb(0%,0%,100%);fill-opacity:1;">
  <use xlink:href="#glyph0-2" x="154.175781" y="155.237305"/>
</g>
<path style="fill:none;stroke-width:1.2;stroke-linecap:butt;stroke-linejoin:miter;stroke:rgb(0%,0%,0%);stroke-opacity:1;stroke-miterlimit:10;" d="M 135.660156 162.429688 L 134.765625 174.335938 "/>
<path style="fill:none;stroke-width:1.2;stroke-linecap:butt;stroke-linejoin:miter;stroke:rgb(0%,0%,100%);stroke-opacity:1;stroke-miterlimit:10;" d="M 134.765625 174.335938 L 133.871094 186.238281 "/>
<path style="fill:none;stroke-width:1.2;stroke-linecap:butt;stroke-linejoin:miter;stroke:rgb(0%,0%,0%);stroke-opacity:1;stroke-miterlimit:10;" d="M 141.085938 165.230469 L 140.367188 174.757812 "/>
<path style="fill:none;stroke-width:1.2;stroke-linecap:butt;stroke-linejoin:miter;stroke:rgb(0%,0%,100%);stroke-opacity:1;stroke-miterlimit:10;" d="M 140.367188 174.757812 L 139.652344 184.28125 "/>
<path style="fill:none;stroke-width:1.2;stroke-linecap:butt;stroke-linejoin:miter;stroke:rgb(0%,0%,0%);stroke-opacity:1;stroke-miterlimit:10;" d="M 135.660156 162.429688 L 115.9375 148.976562 "/>
<path style="fill:none;stroke-width:1.2;stroke-linecap:butt;stroke-linejoin:miter;stroke:rgb(0%,0%,100%);stroke-opacity:1;stroke-miterlimit:10;" d="M 133.871094 186.238281 L 143.734375 192.96875 "/>
<path style="fill:none;stroke-width:1.2;stroke-linecap:butt;stroke-linejoin:miter;stroke:rgb(0%,0%,0%);stroke-opacity:1;stroke-miterlimit:10;" d="M 143.734375 192.96875 L 153.597656 199.695312 "/>
<path style=" stroke:none;fill-rule:nonzero;fill:rgb(100%,100%,100%);fill-opacity:1;" d="M 130.871094 180.738281 L 137.871094 180.738281 L 137.871094 191.738281 L 130.871094 191.738281 Z M 130.871094 180.738281 "/>
<g style="fill:rgb(0%,0%,100%);fill-opacity:1;">
  <use xlink:href="#glyph0-2" x="130.871094" y="189.401367"/>
</g>
<path style="fill:none;stroke-width:1.2;stroke-linecap:butt;stroke-linejoin:miter;stroke:rgb(0%,0%,0%);stroke-opacity:1;stroke-miterlimit:10;" d="M 153.597656 199.695312 L 151.804688 223.503906 "/>
<path style="fill:none;stroke-width:1.2;stroke-linecap:butt;stroke-linejoin:miter;stroke:rgb(0%,0%,0%);stroke-opacity:1;stroke-miterlimit:10;" d="M 159.019531 202.496094 L 157.585938 221.542969 "/>
<path style="fill:none;stroke-width:1.2;stroke-linecap:butt;stroke-linejoin:miter;stroke:rgb(0%,0%,0%);stroke-opacity:1;stroke-miterlimit:10;" d="M 175.109375 189.339844 L 153.597656 199.695312 "/>
<path style="fill:none;stroke-width:1.2;stroke-linecap:butt;stroke-linejoin:miter;stroke:rgb(0%,0%,0%);stroke-opacity:1;stroke-miterlimit:10;" d="M 151.804688 223.503906 L 171.53125 236.960938 "/>
<path style="fill:none;stroke-width:1.2;stroke-linecap:butt;stroke-linejoin:miter;stroke:rgb(0%,0%,0%);stroke-opacity:1;stroke-miterlimit:10;" d="M 171.53125 236.960938 L 193.042969 226.605469 "/>
<path style="fill:none;stroke-width:1.2;stroke-linecap:butt;stroke-linejoin:miter;stroke:rgb(0%,0%,0%);stroke-opacity:1;stroke-miterlimit:10;" d="M 171.246094 230.863281 L 188.457031 222.578125 "/>
<path style="fill:none;stroke-width:1.2;stroke-linecap:butt;stroke-linejoin:miter;stroke:rgb(0%,0%,0%);stroke-opacity:1;stroke-miterlimit:10;" d="M 193.042969 226.605469 L 194.835938 202.796875 "/>
<path style="fill:none;stroke-width:1.2;stroke-linecap:butt;stroke-linejoin:miter;stroke:rgb(0%,0%,0%);stroke-opacity:1;stroke-miterlimit:10;" d="M 194.835938 202.796875 L 175.109375 189.339844 "/>
<path style="fill:none;stroke-width:1.2;stroke-linecap:butt;stroke-linejoin:miter;stroke:rgb(0%,0%,0%);stroke-opacity:1;stroke-miterlimit:10;" d="M 189.695312 206.089844 L 173.917969 195.328125 "/>
<path style="fill:none;stroke-width:1.2;stroke-linecap:butt;stroke-linejoin:miter;stroke:rgb(0%,0%,0%);stroke-opacity:1;stroke-miterlimit:10;" d="M 115.9375 148.976562 L 117.726562 125.164062 "/>
<path style="fill:none;stroke-width:1.2;stroke-linecap:butt;stroke-linejoin:miter;stroke:rgb(0%,0%,0%);stroke-opacity:1;stroke-miterlimit:10;" d="M 110.515625 146.171875 L 111.945312 127.125 "/>
<path style="fill:none;stroke-width:1.2;stroke-linecap:butt;stroke-linejoin:miter;stroke:rgb(0%,0%,0%);stroke-opacity:1;stroke-miterlimit:10;" d="M 94.421875 159.328125 L 115.9375 148.976562 "/>
<path style="fill:none;stroke-width:1.2;stroke-linecap:butt;stroke-linejoin:miter;stroke:rgb(0%,0%,0%);stroke-opacity:1;stroke-miterlimit:10;" d="M 117.726562 125.164062 L 98.003906 111.710938 "/>
<path style="fill:none;stroke-width:1.2;stroke-linecap:butt;stroke-linejoin:miter;stroke:rgb(0%,0%,0%);stroke-opacity:1;stroke-miterlimit:10;" d="M 98.003906 111.710938 L 76.488281 122.066406 "/>
<path style="fill:none;stroke-width:1.2;stroke-linecap:butt;stroke-linejoin:miter;stroke:rgb(0%,0%,0%);stroke-opacity:1;stroke-miterlimit:10;" d="M 98.289062 117.808594 L 81.078125 126.089844 "/>
<path style="fill:none;stroke-width:1.2;stroke-linecap:butt;stroke-linejoin:miter;stroke:rgb(0%,0%,0%);stroke-opacity:1;stroke-miterlimit:10;" d="M 76.488281 122.066406 L 74.699219 145.875 "/>
<path style="fill:none;stroke-width:1.2;stroke-linecap:butt;stroke-linejoin:miter;stroke:rgb(0%,0%,0%);stroke-opacity:1;stroke-miterlimit:10;" d="M 76.488281 122.066406 L 66.625 115.335938 "/>
<path style="fill:none;stroke-width:1.2;stroke-linecap:butt;stroke-linejoin:miter;stroke:rgb(0%,0%,100%);stroke-opacity:1;stroke-miterlimit:10;" d="M 66.625 115.335938 L 56.765625 108.609375 "/>
<path style="fill:none;stroke-width:1.2;stroke-linecap:butt;stroke-linejoin:miter;stroke:rgb(0%,0%,0%);stroke-opacity:1;stroke-miterlimit:10;" d="M 74.699219 145.875 L 94.421875 159.328125 "/>
<path style="fill:none;stroke-width:1.2;stroke-linecap:butt;stroke-linejoin:miter;stroke:rgb(0%,0%,0%);stroke-opacity:1;stroke-miterlimit:10;" d="M 79.835938 142.578125 L 95.617188 153.34375 "/>
<path style="fill:none;stroke-width:1.2;stroke-linecap:butt;stroke-linejoin:miter;stroke:rgb(0%,0%,100%);stroke-opacity:1;stroke-miterlimit:10;" d="M 56.765625 108.609375 L 57.660156 96.703125 "/>
<path style="fill:none;stroke-width:1.2;stroke-linecap:butt;stroke-linejoin:miter;stroke:rgb(0%,0%,0%);stroke-opacity:1;stroke-miterlimit:10;" d="M 57.660156 96.703125 L 58.554688 84.800781 "/>
<path style="fill:none;stroke-width:1.2;stroke-linecap:butt;stroke-linejoin:miter;stroke:rgb(0%,0%,100%);stroke-opacity:1;stroke-miterlimit:10;" d="M 56.765625 108.609375 L 46.007812 113.785156 "/>
<path style="fill:none;stroke-width:1.2;stroke-linecap:butt;stroke-linejoin:miter;stroke:rgb(0%,0%,0%);stroke-opacity:1;stroke-miterlimit:10;" d="M 46.007812 113.785156 L 35.25 118.964844 "/>
<path style=" stroke:none;fill-rule:nonzero;fill:rgb(100%,100%,100%);fill-opacity:1;" d="M 53.765625 103.109375 L 60.765625 103.109375 L 60.765625 114.109375 L 53.765625 114.109375 Z M 53.765625 103.109375 "/>
<g style="fill:rgb(0%,0%,100%);fill-opacity:1;">
  <use xlink:href="#glyph0-2" x="53.765625" y="111.772461"/>
</g>
</g>
</svg>

<svg xmlns="http://www.w3.org/2000/svg" xmlns:xlink="http://www.w3.org/1999/xlink" width="300pt" height="300pt" viewBox="0 0 300 300"><defs><symbol overflow="visible"><path d="M.453 1.594v-7.938h4.5v7.938zm.5-.5h3.5v-6.938h-3.5zm0 0"/></symbol><symbol overflow="visible" id="a"><path d="M3.547-5.953c-.65 0-1.164.242-1.547.72-.375.48-.563 1.13-.563 1.952 0 .835.188 1.49.563 1.967.383.48.898.72 1.547.72.644 0 1.156-.24 1.53-.72.376-.476.564-1.132.564-1.968 0-.822-.187-1.474-.562-1.954-.375-.477-.887-.72-1.53-.72zm0-.734c.914 0 1.648.312 2.203.937.55.617.828 1.438.828 2.47 0 1.042-.277 1.87-.828 2.483-.555.617-1.29.922-2.203.922-.93 0-1.668-.305-2.22-.922C.774-1.41.5-2.237.5-3.28c0-1.033.273-1.853.828-2.47.55-.625 1.29-.938 2.22-.938zm0 0"/></symbol><symbol overflow="visible" id="b"><path d="M.89-6.563H2.08l2.906 5.485v-5.484h.86V0H4.656L1.75-5.484V0H.89zm0 0"/></symbol><symbol overflow="visible" id="c"><path d="M.89-6.563h.876v2.688H5v-2.688h.89V0H5v-3.125H1.766V0H.89zm0 0"/></symbol></defs><g><path fill="#fff" d="M0 0h300v300H0z"/><path d="M246.816 63.04l-1.79 23.812M243.44 89.172l9.865 6.726" stroke-width="1.2" stroke="#000" stroke-miterlimit="10" fill="none"/><path d="M253.305 95.898l9.863 6.727" stroke-width="1.2" stroke="#f00" stroke-miterlimit="10" fill="none"/><path d="M246.61 84.53l9.863 6.728" stroke-width="1.2" stroke="#000" stroke-miterlimit="10" fill="none"/><path d="M256.473 91.258l9.86 6.726" stroke-width="1.2" stroke="#f00" stroke-miterlimit="10" fill="none"/><path d="M245.027 86.852l-10.757 5.175" stroke-width="1.2" stroke="#000" stroke-miterlimit="10" fill="none"/><path d="M234.27 92.027l-10.758 5.176" stroke-width="1.2" stroke="#00f" stroke-miterlimit="10" fill="none"/><path d="M260.75 94.805h8v11h-8zm0 0" fill="#fff"/><use xlink:href="#a" x="260.75" y="103.468" fill="#f00"/><path d="M223.512 97.203l-.895 11.906" stroke-width="1.2" stroke="#00f" stroke-miterlimit="10" fill="none"/><path d="M222.617 109.11l-.898 11.902" stroke-width="1.2" stroke="#000" stroke-miterlimit="10" fill="none"/><path d="M216.512 91.703h14v11h-14zm0 0" fill="#fff"/><g fill="#00f"><use xlink:href="#b" x="216.512" y="100.366"/><use xlink:href="#c" x="223.489" y="100.366"/></g><path d="M221.72 121.012l-21.513 10.355M200.207 131.367l-.894 11.906" stroke-width="1.2" stroke="#000" stroke-miterlimit="10" fill="none"/><path d="M199.313 143.273l-.9 11.903M198.414 155.176l-10.758 5.18" stroke-width="1.2" stroke="#00f" stroke-miterlimit="10" fill="none"/><path d="M187.656 160.355l-10.754 5.176" stroke-width="1.2" stroke="#000" stroke-miterlimit="10" fill="none"/><path d="M191.414 149.676h14v11h-14zm0 0" fill="#fff"/><g fill="#00f"><use xlink:href="#b" x="191.414" y="158.339"/><use xlink:href="#c" x="198.392" y="158.339"/></g><path d="M176.902 165.53l-9.863-6.725" stroke-width="1.2" stroke="#000" stroke-miterlimit="10" fill="none"/><path d="M167.04 158.805l-9.864-6.73" stroke-width="1.2" stroke="#00f" stroke-miterlimit="10" fill="none"/><path d="M171.762 168.828l-7.89-5.383" stroke-width="1.2" stroke="#000" stroke-miterlimit="10" fill="none"/><path d="M163.87 163.445l-7.886-5.382" stroke-width="1.2" stroke="#00f" stroke-miterlimit="10" fill="none"/><path d="M175.11 189.34l1.792-23.81" stroke-width="1.2" stroke="#000" stroke-miterlimit="10" fill="none"/><path d="M157.176 152.074l-10.758 5.18" stroke-width="1.2" stroke="#00f" stroke-miterlimit="10" fill="none"/><path d="M146.418 157.254l-10.758 5.176" stroke-width="1.2" stroke="#000" stroke-miterlimit="10" fill="none"/><path d="M154.176 146.574h7v11h-7zm0 0" fill="#fff"/><use xlink:href="#b" x="154.176" y="155.237" fill="#00f"/><path d="M135.66 162.43l-.894 11.906" stroke-width="1.2" stroke="#000" stroke-miterlimit="10" fill="none"/><path d="M134.766 174.336l-.895 11.902" stroke-width="1.2" stroke="#00f" stroke-miterlimit="10" fill="none"/><path d="M141.086 165.23l-.72 9.528" stroke-width="1.2" stroke="#000" stroke-miterlimit="10" fill="none"/><path d="M140.367 174.758l-.715 9.523" stroke-width="1.2" stroke="#00f" stroke-miterlimit="10" fill="none"/><path d="M135.66 162.43l-19.722-13.453" stroke-width="1.2" stroke="#000" stroke-miterlimit="10" fill="none"/><path d="M133.87 186.238l9.864 6.73" stroke-width="1.2" stroke="#00f" stroke-miterlimit="10" fill="none"/><path d="M143.734 192.97l9.864 6.725" stroke-width="1.2" stroke="#000" stroke-miterlimit="10" fill="none"/><path d="M130.87 180.738h7v11h-7zm0 0" fill="#fff"/><use xlink:href="#b" x="130.871" y="189.401" fill="#00f"/><path d="M153.598 199.695l-1.793 23.81M159.02 202.496l-1.434 19.047M175.11 189.34l-21.512 10.355M151.805 223.504l19.726 13.457M171.53 236.96l21.513-10.355M171.246 230.863l17.21-8.285M193.043 226.605l1.793-23.808M194.836 202.797L175.11 189.34M189.695 206.09l-15.777-10.762M115.938 148.977l1.79-23.813M110.516 146.172l1.43-19.047M94.422 159.328l21.516-10.35M117.727 125.164L98.004 111.71M98.004 111.71l-21.516 10.356M98.29 117.81l-17.212 8.28M76.488 122.066l-1.79 23.81M76.488 122.066l-9.863-6.73" stroke-width="1.2" stroke="#000" stroke-miterlimit="10" fill="none"/><path d="M66.625 115.336l-9.86-6.727" stroke-width="1.2" stroke="#00f" stroke-miterlimit="10" fill="none"/><path d="M74.7 145.875l19.722 13.453M79.836 142.578l15.78 10.766" stroke-width="1.2" stroke="#000" stroke-miterlimit="10" fill="none"/><path d="M56.766 108.61l.894-11.907" stroke-width="1.2" stroke="#00f" stroke-miterlimit="10" fill="none"/><path d="M57.66 96.703l.895-11.902" stroke-width="1.2" stroke="#000" stroke-miterlimit="10" fill="none"/><path d="M56.766 108.61l-10.758 5.175" stroke-width="1.2" stroke="#00f" stroke-miterlimit="10" fill="none"/><path d="M46.008 113.785l-10.758 5.18" stroke-width="1.2" stroke="#000" stroke-miterlimit="10" fill="none"/><path d="M53.766 103.11h7v11h-7zm0 0" fill="#fff"/><use xlink:href="#b" x="53.766" y="111.772" fill="#00f"/></g></svg>
